X:77
T:W. M. Larrabee Q.S.
C:By A.F. Hopkins, National Fife Major
S:American Veteran Fifer, #77
M:6/8
L:1/8
Q:1/8=300
K:G 
%%MIDI program 72
%%MIDI transpose 8
%%MIDI ratio 3 1
((3d/e/f/) | gfg e2d | ((3Bcd)e dBG | BAB dBG | ABA def |
gfg e2d | ((3Bcd)e dBG | BAB dBG | ABA G2:|
|: ((3d/e/f/) | gag b2a | gag edB | dBg edB | ABA def |
gag b2a | gag edB | BAB dBG | ABA G2 :|


